X:7083
T:The Merry Wives
O:england
R:Highland
C:Ed Reavy
M:4/4
L:1/8
N:They are surely not from Windsor;
N:and they are merry
N:because their mena are off
N:"flutherin' with some old tunes,"
N:while they have the kitchen
N:to themselves.  They have some
N:work of their own to do,
N:and no one will escape them
N:in the end.  When the gossiping
N:wives make merry, there's hell
N:to pay in every quarter.
K:C
cA|GEcE GcEc|GcEc d2 cA|GEcE GcEc|(3efe d^c d2 =cA|
GEcE GcEc|GcEc d2 cA|GEcE GcEc|(3efe d^c d2 ec:||
cdef gfge|abaf g2 ed|cdef (3ggf ge|a^gec d2 ed
|cdef gfge|abaf g2 ge|cdef g2 bg|(3agf ge d2:||


